X:3147
T:Tune from Micho Russell, 7 (Set dance )
O:ireland
S:Micho Russell; transcribed by Andy Hornby, from a recording of a session.
R:Set Dance
M:4/4
K:G
DGGF GBAG| FAde f2g2| agfa gfde| gdcA dcAF|\
DGGF GBAG| FAde f2g2|
agfd cAFG| AGGF G4 :|\
f2fg f2df| gfga g2de| f2dg gfde| fdcA BGG2|
f2fa f4  | g2ga g2fg| a2ag fga2| bgaf g2fg|\
a2ab agfd| dggf g2fd|
cAAA g2de| fdcABGAF|\
DGGF GBAG| FAde f2g2| agfd cAFG| AGGF G4 |]
